dist/img/view.svg

<svg width="25" height="16" viewBox="0 0 25 16" fill="none" xmlns="http://www.w3.org/2000/svg">
<path d="M12.481 0.799316C7.86549 0.799316 3.6799 3.32451 0.591362 7.42608C0.339338 7.76212 0.339338 8.23158 0.591362 8.56761C3.6799 12.6741 7.86549 15.1993 12.481 15.1993C17.0965 15.1993 21.2821 12.6741 24.3706 8.57255C24.6227 8.23652 24.6227 7.76706 24.3706 7.43103C21.2821 3.32451 17.0965 0.799316 12.481 0.799316ZM12.8121 13.0695C9.74826 13.2622 7.21813 10.737 7.41085 7.66823C7.56899 5.13809 9.61978 3.08731 12.1499 2.92917C15.2137 2.73645 17.7439 5.26164 17.5511 8.33041C17.3881 10.8556 15.3373 12.9064 12.8121 13.0695ZM12.6589 10.7271C11.0084 10.8309 9.64449 9.47193 9.7532 7.82142C9.83721 6.45752 10.9441 5.35553 12.308 5.26658C13.9586 5.1628 15.3225 6.52176 15.2137 8.17228C15.1248 9.54111 14.0179 10.6431 12.6589 10.7271Z" fill="#9F9F9F"/>
</svg>

<svg width="25" height="16" fill="none" xmlns="http://www.w3.org/2000/svg"><path d="M12.481.8C7.865.8 3.68 3.324.591 7.425a.956.956 0 000 1.142c3.089 4.106 7.274 6.631 11.89 6.631 4.615 0 8.801-2.525 11.89-6.626a.956.956 0 000-1.142C21.282 3.325 17.097.799 12.48.799zm.331 12.27a5.084 5.084 0 01-5.401-5.402c.158-2.53 2.209-4.58 4.739-4.739a5.084 5.084 0 015.4 5.401c-.163 2.526-2.214 4.576-4.739 4.74zm-.153-2.343a2.731 2.731 0 01-2.906-2.906 2.747 2.747 0 012.555-2.554 2.731 2.731 0 012.906 2.905 2.747 2.747 0 01-2.555 2.555z" fill="#9F9F9F"/></svg>
